icons/src/svg/send.svg

<svg width="32" height="32" viewBox="0 0 32 32" fill="none" xmlns="http://www.w3.org/2000/svg">
<path fill-rule="evenodd" clip-rule="evenodd" d="M4.09723 6.60841C3.56508 4.92397 5.31833 3.42718 6.89846 4.21692L26.8969 14.2119C28.3714 14.9489 28.3714 17.053 26.8969 17.79L6.89845 27.785C5.31831 28.5747 3.56508 27.0779 4.09723 25.3935L7.06454 16.001L4.09723 6.60841ZM8.84605 17.001L6.00432 25.996L26.0028 16.001L6.00433 6.00592L8.84605 15.001H15.7205C16.2728 15.001 16.7205 15.4487 16.7205 16.001C16.7205 16.5532 16.2728 17.001 15.7205 17.001H8.84605Z" fill="#0D0F13"/>
</svg>

<svg fill="none" xmlns="http://www.w3.org/2000/svg" viewBox="0 0 32 32">
  <path fill-rule="evenodd" clip-rule="evenodd" d="M4.097 6.608c-.532-1.684 1.221-3.18 2.801-2.391l19.999 9.995c1.474.737 1.474 2.841 0 3.578L6.898 27.785c-1.58.79-3.333-.707-2.8-2.392l2.967-9.392-2.968-9.393Zm4.749 10.393-2.842 8.995 19.999-9.995L6.004 6.006 8.846 15h6.874a1 1 0 1 1 0 2H8.846Z" fill="#000"/>
</svg>
